X:1
T:Salto, 11.11.11.10
T:Salto, 11.11.11.10
T:Isaiah Baltzell, 1880
T:Public Domain Courtesy of the Cyber Hymnal™
C:Isaiah Baltzell, 1880
Z:Public Domain
Z:Courtesy of the Cyber Hymnal™
%%score ( 1 2 ) 3
L:1/8
Q:1/4=95
M:4/4
K:Eb
V:1 treble 
V:2 treble 
V:3 bass 
V:1
 ([EG][FA]) | [GB]2 [Ac][GB] [GB]2 [EG]E | [ce]2 [Bd][Ac] [GB]3 [GB] | [Ac]2 [ce][Ac] [GB]2 [EG]E | %4
 [FA]2 [EG][EG] !fermata![DF]2 ([EG][FA]) | [GB]2 [Ac][GB] [GB]2 [EG]E | %6
 [ce]2 [Bd][Ac] [GB]3 [GB] | [ce]2 [Bd][Ac] [GB]2 [EG][Ac] | %8
 [GB]2 !fermata![GB]>[DB] !fermata!E2 x2 |] x6 |] %10
V:2
 x2 | x7 E | x8 | x7 E | x8 | x7 E | x8 | x8 | x4 E2 x2 |] x6 |] %10
V:3
 z2 | E,,6 z2 | A,,4 E,,4 | A,,4 x4 | E,,4 x4 | B,,6 z2 | E,,6 z2 | A,,4 E,,4 | A,,4 E,,4 |] %9
 B,,4 [E,G,]2 |] %10

